svg/grid.svg

<svg width="24" height="24" viewBox="0 0 24 24" fill="none" xmlns="http://www.w3.org/2000/svg">
<path d="M3 5C3 3.89543 3.89543 3 5 3H9C10.1046 3 11 3.89543 11 5V9C11 10.1046 10.1046 11 9 11H5C3.89543 11 3 10.1046 3 9V5ZM9 5H5V9H9V5ZM13 5C13 3.89543 13.8954 3 15 3H19C20.1046 3 21 3.89543 21 5V9C21 10.1046 20.1046 11 19 11H15C13.8954 11 13 10.1046 13 9V5ZM19 5H15V9H19V5ZM3 15C3 13.8954 3.89543 13 5 13H9C10.1046 13 11 13.8954 11 15V19C11 20.1046 10.1046 21 9 21H5C3.89543 21 3 20.1046 3 19V15ZM9 15H5V19H9V15ZM13 15C13 13.8954 13.8954 13 15 13H19C20.1046 13 21 13.8954 21 15V19C21 20.1046 20.1046 21 19 21H15C13.8954 21 13 20.1046 13 19V15ZM19 15H15V19H19V15Z" fill="#0D0D0D"/>
</svg>

<svg width="24" height="24" fill="none" xmlns="http://www.w3.org/2000/svg"><path d="M3 5a2 2 0 012-2h4a2 2 0 012 2v4a2 2 0 01-2 2H5a2 2 0 01-2-2V5zm6 0H5v4h4V5zm4 0a2 2 0 012-2h4a2 2 0 012 2v4a2 2 0 01-2 2h-4a2 2 0 01-2-2V5zm6 0h-4v4h4V5zM3 15a2 2 0 012-2h4a2 2 0 012 2v4a2 2 0 01-2 2H5a2 2 0 01-2-2v-4zm6 0H5v4h4v-4zm4 0a2 2 0 012-2h4a2 2 0 012 2v4a2 2 0 01-2 2h-4a2 2 0 01-2-2v-4zm6 0h-4v4h4v-4z" fill="#0D0D0D"/></svg>
